X:1
T:Title
%%score 1 ( 2 3 )
L:1/8
Q:1/4=90
M:4/4
K:F
V:1 treble nm="Strings 1, Treble"
V:2 bass nm="Strings 1, Bass"
V:3 bass 
V:1
 z4 z2 [CF][CG] | [FA]2 [FA][GB] [Ac]2 [FA][CG] | [CF]6 [FA][FA] | [EG]2 [EG][EG] [EG]2 [Fc][EB] | %4
w: 1.~I~ am~|free~ in~ the~ all cleans ing~|blood,~ Oh,~ the~|sweet~ flow ing~ tide~ in~ my~|
 [FA]6 [CF][CG] | [FA]2 [FA][FB] [Fc]2 [F=B][Fc] | [Fd]2 [Ff][Fd] [Fc]2 [FA][FA] | %7
w: soul,~ Ev er~|keep ing~ me~ white,~ in~ the~|cit y~ of~ light!~ Bless ed~|
 [EG]2 [EG][EG] [EB]2 [CA][CG] | [CF]6 [CA][CB] | [Fc]6 [Fd]2 | [Fc]2 [FA]4 [FA][FA] | %11
w: Je sus,~ in~ Thee~ I~ am~|whole.~ * *|||
 [FB]2 [Fd][Fd] [Fc]2 [FA]2 | [EG]6 [CF][CG] | [FA]2 [FA][FB] [Fc]2 [Fc][Fc] | %14
w: |||
 [Ff]2 [Ff][Fe] [Fd]2[Q:1/4=90] [Fd][Fd][Q:1/4=12] | [Fc]2 [FA][CG] [CF]2 [CE][CE] | [CF]6 z2 |] %17
w: |||
V:2
 z4 z2 [F,A,][F,B,] | [F,C]2 [F,C][F,C] [F,C]2 [F,C][F,B,] | [F,A,]6 [F,C][F,C] | %3
 [C,C]2 [E,C][G,C] [B,C]2 [A,C][G,C] | [F,C]6 [F,A,][F,B,] | %5
 [F,C]2 [F,C][F,B,] [F,A,]2 [F,_A,][F,=A,] | [B,,B,]2 [B,,D][B,,B,] [F,A,]2 [F,C][F,C] | %7
 [C,C]2 [C,C][C,C] [C,C]2 [C,C][C,B,] | [F,A,]6 z2 | z2 [F,A,][F,A,] [F,A,]2 [B,,B,]2 | %10
 [F,A,][F,A,][F,C][F,C] [F,C]2 [F,C][F,C] | [B,,D]2 [B,,B,][B,,B,] [F,A,]2 [F,C]2 | C6 z2 | %13
 [F,,C]2 [F,C][F,B,] [F,A,]2 [F,A,][F,A,] | [B,,D]2 [B,,D][B,,C] [B,,B,]2 [B,,B,][B,,B,] | %15
 [C,A,]2 [C,C][C,B,] [C,A,]2 [C,G,][C,G,] | [F,,F,A,]6 z2 |] %17
V:3
 x8 | x8 | x8 | x8 | x8 | x8 | x8 | x8 | x8 | x8 | x8 | x8 | C,2 C,C, C,B,,[A,,C][G,,C] | x8 | x8 | %15
 x8 | x8 |] %17

